elide/concept/src/learn3.svg

<svg clip-rule="evenodd" fill-rule="evenodd" stroke-linejoin="round" stroke-miterlimit="2" viewBox="0 0 100 100" xmlns="http://www.w3.org/2000/svg"><path d="m0 0h100v100h-100z" fill="none"/><g fill="#01b7ff"><path d="m296.673 229.703c.817 0 1.481.663 1.481 1.481 0 .817-.664 1.481-1.481 1.481-.818 0-1.481-.664-1.481-1.481 0-.818.663-1.481 1.481-1.481zm.613 1.769c.03 0 .059.013.078.036s.027.053.021.083c-.075.255-.366.45-.712.45-.349 0-.64-.194-.709-.452-.005-.028.003-.057.021-.078.018-.022.045-.035.073-.035.269-.004.959-.004 1.228-.004zm.127-.788c0-.111-.09-.2-.2-.2-.111 0-.2.089-.2.2v.3c0 .11.089.2.2.2.11 0 .2-.09.2-.2 0-.094 0-.206 0-.3zm-1.08 0c0-.111-.09-.2-.2-.2-.111 0-.2.089-.2.2v.3c0 .11.089.2.2.2.11 0 .2-.09.2-.2 0-.094 0-.206 0-.3z" transform="matrix(7.86922 0 0 7.86922 -2302.93284 -1755.73286)"/><path d="m296.673 229.703c.817 0 1.481.663 1.481 1.481 0 .817-.664 1.481-1.481 1.481-.818 0-1.481-.664-1.481-1.481 0-.818.663-1.481 1.481-1.481zm.613 1.769c.03 0 .059.013.078.036s.027.053.021.083c-.075.255-.366.45-.712.45-.349 0-.64-.194-.709-.452-.005-.028.003-.057.021-.078.018-.022.045-.035.073-.035.269-.004.959-.004 1.228-.004zm.127-.788c0-.111-.09-.2-.2-.2-.111 0-.2.089-.2.2v.3c0 .11.089.2.2.2.11 0 .2-.09.2-.2 0-.094 0-.206 0-.3zm-1.08 0c0-.111-.09-.2-.2-.2-.111 0-.2.089-.2.2v.3c0 .11.089.2.2.2.11 0 .2-.09.2-.2 0-.094 0-.206 0-.3z" transform="matrix(7.86922 0 0 7.86922 -2266.24653636 -1755.73286)"/><path d="m296.673 229.703c.817 0 1.481.663 1.481 1.481 0 .817-.664 1.481-1.481 1.481-.818 0-1.481-.664-1.481-1.481 0-.818.663-1.481 1.481-1.481zm.613 1.769c.03 0 .059.013.078.036s.027.053.021.083c-.075.255-.366.45-.712.45-.349 0-.64-.194-.709-.452-.005-.028.003-.057.021-.078.018-.022.045-.035.073-.035.269-.004.959-.004 1.228-.004zm.127-.788c0-.111-.09-.2-.2-.2-.111 0-.2.089-.2.2v.3c0 .11.089.2.2.2.11 0 .2-.09.2-.2 0-.094 0-.206 0-.3zm-1.08 0c0-.111-.09-.2-.2-.2-.111 0-.2.089-.2.2v.3c0 .11.089.2.2.2.11 0 .2-.09.2-.2 0-.094 0-.206 0-.3z" transform="matrix(7.86922 0 0 7.86922 -2284.58968818 -1787.50877036)"/></g></svg>

<?xml version="1.0" encoding="UTF-8" standalone="no"?>
<!DOCTYPE svg PUBLIC "-//W3C//DTD SVG 1.1//EN" "http://www.w3.org/Graphics/SVG/1.1/DTD/svg11.dtd">
<svg width="100%" height="100%" viewBox="0 0 100 100" version="1.1" xmlns="http://www.w3.org/2000/svg" xmlns:xlink="http://www.w3.org/1999/xlink" xml:space="preserve" xmlns:serif="http://www.serif.com/" style="fill-rule:evenodd;clip-rule:evenodd;stroke-linejoin:round;stroke-miterlimit:2;">
    <g transform="matrix(1,0,0,1,-300,0)">
        <rect id="Artboard3" x="300" y="0" width="100" height="100" style="fill:none;"/>
        <g id="Artboard31" serif:id="Artboard3">
            <g transform="matrix(7.86922,0,0,7.86922,-5764.42,-473.05)">
                <g transform="matrix(1,0,0,1,478,-163)">
                    <path d="M296.673,229.703C297.49,229.703 298.154,230.366 298.154,231.184C298.154,232.001 297.49,232.665 296.673,232.665C295.855,232.665 295.192,232.001 295.192,231.184C295.192,230.366 295.855,229.703 296.673,229.703ZM297.286,231.472C297.316,231.472 297.345,231.485 297.364,231.508C297.383,231.531 297.391,231.561 297.385,231.591C297.31,231.846 297.019,232.041 296.673,232.041C296.324,232.041 296.033,231.847 295.964,231.589C295.959,231.561 295.967,231.532 295.985,231.511C296.003,231.489 296.03,231.476 296.058,231.476C296.327,231.472 297.017,231.472 297.286,231.472ZM297.413,230.684C297.413,230.573 297.323,230.484 297.213,230.484C297.102,230.484 297.013,230.573 297.013,230.684C297.013,230.778 297.013,230.89 297.013,230.984C297.013,231.094 297.102,231.184 297.213,231.184C297.323,231.184 297.413,231.094 297.413,230.984C297.413,230.89 297.413,230.778 297.413,230.684ZM296.333,230.684C296.333,230.573 296.243,230.484 296.133,230.484C296.022,230.484 295.933,230.573 295.933,230.684C295.933,230.778 295.933,230.89 295.933,230.984C295.933,231.094 296.022,231.184 296.133,231.184C296.243,231.184 296.333,231.094 296.333,230.984C296.333,230.89 296.333,230.778 296.333,230.684Z" style="fill:rgb(1,183,255);"/>
                </g>
                <g transform="matrix(1,0,0,1,482.662,-163)">
                    <path d="M296.673,229.703C297.49,229.703 298.154,230.366 298.154,231.184C298.154,232.001 297.49,232.665 296.673,232.665C295.855,232.665 295.192,232.001 295.192,231.184C295.192,230.366 295.855,229.703 296.673,229.703ZM297.286,231.472C297.316,231.472 297.345,231.485 297.364,231.508C297.383,231.531 297.391,231.561 297.385,231.591C297.31,231.846 297.019,232.041 296.673,232.041C296.324,232.041 296.033,231.847 295.964,231.589C295.959,231.561 295.967,231.532 295.985,231.511C296.003,231.489 296.03,231.476 296.058,231.476C296.327,231.472 297.017,231.472 297.286,231.472ZM297.413,230.684C297.413,230.573 297.323,230.484 297.213,230.484C297.102,230.484 297.013,230.573 297.013,230.684C297.013,230.778 297.013,230.89 297.013,230.984C297.013,231.094 297.102,231.184 297.213,231.184C297.323,231.184 297.413,231.094 297.413,230.984C297.413,230.89 297.413,230.778 297.413,230.684ZM296.333,230.684C296.333,230.573 296.243,230.484 296.133,230.484C296.022,230.484 295.933,230.573 295.933,230.684C295.933,230.778 295.933,230.89 295.933,230.984C295.933,231.094 296.022,231.184 296.133,231.184C296.243,231.184 296.333,231.094 296.333,230.984C296.333,230.89 296.333,230.778 296.333,230.684Z" style="fill:rgb(1,183,255);"/>
                </g>
                <g transform="matrix(1,0,0,1,480.331,-167.038)">
                    <path d="M296.673,229.703C297.49,229.703 298.154,230.366 298.154,231.184C298.154,232.001 297.49,232.665 296.673,232.665C295.855,232.665 295.192,232.001 295.192,231.184C295.192,230.366 295.855,229.703 296.673,229.703ZM297.286,231.472C297.316,231.472 297.345,231.485 297.364,231.508C297.383,231.531 297.391,231.561 297.385,231.591C297.31,231.846 297.019,232.041 296.673,232.041C296.324,232.041 296.033,231.847 295.964,231.589C295.959,231.561 295.967,231.532 295.985,231.511C296.003,231.489 296.03,231.476 296.058,231.476C296.327,231.472 297.017,231.472 297.286,231.472ZM297.413,230.684C297.413,230.573 297.323,230.484 297.213,230.484C297.102,230.484 297.013,230.573 297.013,230.684C297.013,230.778 297.013,230.89 297.013,230.984C297.013,231.094 297.102,231.184 297.213,231.184C297.323,231.184 297.413,231.094 297.413,230.984C297.413,230.89 297.413,230.778 297.413,230.684ZM296.333,230.684C296.333,230.573 296.243,230.484 296.133,230.484C296.022,230.484 295.933,230.573 295.933,230.684C295.933,230.778 295.933,230.89 295.933,230.984C295.933,231.094 296.022,231.184 296.133,231.184C296.243,231.184 296.333,231.094 296.333,230.984C296.333,230.89 296.333,230.778 296.333,230.684Z" style="fill:rgb(1,183,255);"/>
                </g>
            </g>
        </g>
    </g>
</svg>
